packages/core/src/svgs/tokens/mono/BAND.svg

<svg width="24" height="24" viewBox="0 0 24 24" fill="none" xmlns="http://www.w3.org/2000/svg">
<path d="M18.875 18.625L12 22L5.125 18.625V5.35625L12 2L15.7501 4.40001V9.96875L13.8749 8.84376V5.39376L12 4.40001L7.00001 6.73126V17.2501L12 19.675L17 17.2501V12.9375L10.125 9.33758L12.0751 8.28751L18.875 11.9938V18.625ZM13.1312 11.5812L15.3501 12.675L10.125 15.05V9.83123L12 10.8938V12.4562L13.1312 11.5812Z" fill="white"/>
</svg>

<svg xmlns="http://www.w3.org/2000/svg" width="24" height="24" fill="none" viewBox="0 0 24 24">
    <path fill="#fff" d="M18.875 18.625 12 22l-6.875-3.375V5.356L12 2l3.75 2.4v5.569l-1.875-1.125v-3.45L12 4.4 7 6.731v10.52l5 2.424 5-2.425v-4.312l-6.875-3.6 1.95-1.05 6.8 3.706zm-5.744-7.044 2.22 1.094-5.226 2.375V9.831L12 10.894v1.562z"/>
</svg>
